X: 100273
M: C|
L: 1/8
K: A
|:\
vA,2CE D2FA | E2GB A2cA | (BE)(cE) (dE)(cE) | (BE)cB (AF)EC |
|: ((3efg) |\
a2ga (fe)ce | b2bg (ag)fe | gebe gbeg | fe^df e2 ((3efg) |
a2ga (fe)ce | fgag fece | (fB)(gB) afed | cABG A2 :|


